!!!COA: des Prez, Josquin
!!!CDT: ~1450-1521/08/27
!!!OTL: Anima mea liquefacta est
!!!AGN: Motet; Fragment
!!!SCT: NJE 99.13
!!!SCA: New Josquin Edition 99.13
!!!ONB: Anima mea liquefacta est [for Ano2074]
!!!ONB: Descendi in ortum meum (secunda pars of Anima mea liqefacta est) [for Jos9913]
!!!voices: 6
**kern	**kern	**kern	**kern	**kern	**kern
*part6	*part5	*part4	*part3	*part2	*part1
*staff6	*staff5	*staff4	*staff3	*staff2	*staff1
*Ivox	*Ivox	*Ivox	*Ivox	*Ivox	*Ivox
*I"Bassus 2	*I"Bassus 1	*I"Tenor 2	*I"Tenor 1	*I"Altus	*I"Superius
*I'B2	*I'B1	*I'T2	*I'T1	*I'A	*I'S
*>[A,B]	*>[A,B]	*>[A,B]	*>[A,B]	*>[A,B]	*>[A,B]
*>A	*>A	*>A	*>A	*>A	*>A
*clefF4	*clefF4	*clefGv2	*clefGv2	*clefGv2	*clefG2
*k[]	*k[]	*k[]	*k[]	*k[]	*k[]
*a:	*a:	*a:	*a:	*a:	*a:
*M2/1	*M2/1	*M2/1	*M2/1	*M2/1	*M2/1
*met(C|)	*met(C|)	*met(C|)	*met(C|)	*met(C|)	*met(C|)
!!section: Prima pars: Anima mea liquefacta est
=	=	=	=	=	=
1.GG	0r	0r	[0G	0r	0r
2AA	.	.	.	.	.
=3	=3	=3	=3	=3	=3
2BB	1r	0r	0G_	0r	0r
2C	.	.	.	.	.
1D	[1GG	.	.	.	.
=4	=4	=4	=4	=4	=4
1E	2GG]	0r	0G_	0r	0r
.	2AA	.	.	.	.
1D	2BB	.	.	.	.
.	2C	.	.	.	.
=5	=5	=5	=5	=5	=5
[0GG	1D	0r	0G]	0r	0r
.	1E	.	.	.	.
=6	=6	=6	=6	=6	=6
1GG]	1D	0r	[0B	0r	0r
1G	1GG	.	.	.	.
=7	=7	=7	=7	=7	=7
2.E	1G	0r	0B]	0r	0r
4F	.	.	.	.	.
1G	2.E	.	.	.	.
.	4F	.	.	.	.
=8	=8	=8	=8	=8	=8
1C	1G	0r	[0c	0r	0r
2r	1C	.	.	.	.
2E	.	.	.	.	.
=9	=9	=9	=9	=9	=9
1F	2r	0r	0c]	0r	0r
.	2F	.	.	.	.
2E	2G	.	.	.	.
[2F	[2A	.	.	.	.
=10	=10	=10	=10	=10	=10
4F]	4A]	0r	0d	0r	0r
4E	4G	.	.	.	.
4D	4F	.	.	.	.
4C	4E	.	.	.	.
1D	1F	.	.	.	.
=11	=11	=11	=11	=11	=11
1C	1G	0r	0e	1.G	0r
[1GG	[1G	.	.	.	.
.	.	.	.	2A	.
=12	=12	=12	=12	=12	=12
2GG]	2G]	1r	0d	2B	[0g
2AA	4F	.	.	2c	.
.	4E	.	.	.	.
1BB	1D	[1G	.	1d	.
=13	=13	=13	=13	=13	=13
1C	1r	2G]	0r	1e	0g_
.	.	2A	.	.	.
1BB	1GG	2B	.	1d	.
.	.	2c	.	.	.
=14	=14	=14	=14	=14	=14
0r	1.GG	1d	0r	2.G	0g_
.	.	.	.	4A	.
.	.	1e	.	2B	.
.	2AA	.	.	2c	.
=15	=15	=15	=15	=15	=15
0r	1BB	1d	0r	1d	0g]
.	1C	2.G	.	1e	.
.	.	4A	.	.	.
=16	=16	=16	=16	=16	=16
0GG	2.BB	2B	0r	1d	[0b
.	.	2c	.	.	.
.	4GG	.	.	.	.
.	[1G	1d	.	[1B	.
=17	=17	=17	=17	=17	=17
0GG	2G]	1e	0r	0B]	0b]
.	2E	.	.	.	.
.	1G	1d	.	.	.
=18	=18	=18	=18	=18	=18
1.C	[0E	2.c	0r	1G	[0cc
.	.	4B	.	.	.
.	.	2G	.	2.c	.
2AA	.	2A	.	.	.
.	.	.	.	4d	.
=19	=19	=19	=19	=19	=19
1C	1E]	1G	0r	1.e	0cc]
1AA	1C	[1c	.	.	.
.	.	.	.	4d	.
.	.	.	.	4c	.
=20	=20	=20	=20	=20	=20
0GG	2G	2c]	0r	2B	0dd
.	4F	4B	.	2c	.
.	4E	4A	.	.	.
.	1D	1B	.	1d	.
=21	=21	=21	=21	=21	=21
0C	0AA	0c	0r	1c	0ee
.	.	.	.	[1A	.
=22	=22	=22	=22	=22	=22
0D	0r	0A	0f	1A]	0dd
.	.	.	.	[1d	.
=23	=23	=23	=23	=23	=23
0BB-X	0D	0B-X	0f	0d]	1r
.	.	.	.	.	1dd
=24	=24	=24	=24	=24	=24
1C	1E	1G	1e	0r	1cc
1D	1F	1F	1d	.	2b
.	.	.	.	.	[2a
=25	=25	=25	=25	=25	=25
1E	2E	1G	1c	1r	4a]
.	.	.	.	.	4g
.	2C	.	.	.	1g
1D	1F	1A	1d	1A	.
.	.	.	.	.	2f#Xi
=26	=26	=26	=26	=26	=26
1GG	1D	1G	0d	2B	1g
.	.	.	.	2.d	.
1D	1F	1r	.	.	1r
.	.	.	.	4c	.
.	.	.	.	2A	.
=27	=27	=27	=27	=27	=27
0r	1.G	0r	0r	2B	1g
.	.	.	.	4G	.
.	.	.	.	4A	.
.	.	.	.	4B	2e
.	.	.	.	4c	.
.	2F	.	.	[2d	2f
=28	=28	=28	=28	=28	=28
0r	2E	0r	1r	4d]	2g
.	.	.	.	4c	.
.	2C	.	.	1c	2e
.	1D	.	1d	.	1f
.	.	.	.	2B	.
=29	=29	=29	=29	=29	=29
0r	4C	0r	1.e	2c	4e
.	4D	.	.	.	4f
.	4E	.	.	4B	4g
.	4F	.	.	4A	4a
.	1G	.	.	2G	4b
.	.	.	.	.	4cc
.	.	.	2d	2B	[2b
=30	=30	=30	=30	=30	=30
0r	2A	0r	2c	2c	4b]
.	.	.	.	.	4a
.	2F	.	2A	2d	1a
.	1E	.	1B	1e	.
.	.	.	.	.	2g#Xi
=31	=31	=31	=31	=31	=31
0r	2.AA	0r	1A	2.c	1.a
.	4BB	.	.	4B	.
.	4C	.	1r	2A	.
.	4D	.	.	.	.
.	4E	.	.	2E	2g
.	4C	.	.	.	.
=32	=32	=32	=32	=32	=32
0r	2D	2.A	0r	2F	2f
.	2BB	.	.	2G	2d
.	.	4B	.	.	.
.	1AA	4c	.	[1A	1e
.	.	4d	.	.	.
.	.	4e	.	.	.
.	.	4c	.	.	.
=33	=33	=33	=33	=33	=33
0r	2.D	1.d	0r	1A]	4d
.	.	.	.	.	4e
.	.	.	.	.	4f
.	4E	.	.	.	4g
.	4F	.	.	2r	4a
.	4G	.	.	.	4b
.	4A	2c	.	2A	[2a
.	4F	.	.	.	.
=34	=34	=34	=34	=34	=34
1r	2G	2B	0r	2B	4a]
.	.	.	.	.	4g
.	2E	2G	.	2c	1g
1D	1D	1A	.	1d	.
.	.	.	.	.	2f#Xi
=35	=35	=35	=35	=35	=35
1.E	0r	2G	0r	1B	1g
.	.	4E	.	.	.
.	.	4F	.	.	.
.	.	4G	.	2c	1r
.	.	4A	.	.	.
2D	.	[2B	.	2d	.
=36	=36	=36	=36	=36	=36
2C	1r	4B]	0r	2e	0r
.	.	4A	.	.	.
2AA	.	1A	.	2c	.
1BB	2r	.	.	1d	.
.	2G	2G	.	.	.
=37	=37	=37	=37	=37	=37
2.AA	1.A	2F	0r	2r	0r
.	.	1E	.	4c	.
4BB	.	.	.	4d	.
4C	.	.	.	4e	.
4D	.	.	.	4f	.
4E	2G	2E	.	[2e	.
4C	.	.	.	.	.
=38	=38	=38	=38	=38	=38
2D	2F	2F	1r	4e]	0r
.	.	.	.	4d	.
2BB	2D	2G	.	2d	.
1AA	1E	[1A	1c	2c	.
.	.	.	.	2e	.
=39	=39	=39	=39	=39	=39
2.D	1D	1A]	1.d	2.f	0r
4E	.	.	.	4g	.
4F	1r	2r	.	4a	.
4G	.	.	.	4b-Xi	.
4A	.	2A	2c	[2a	.
4F	.	.	.	.	.
=40	=40	=40	=40	=40	=40
2G	0r	2B	2B	4a]	1r
.	.	.	.	4g	.
2E	.	2c	2G	1g	.
1D	.	1d	1A	.	1a
.	.	.	.	2f#Xi	.
=41	=41	=41	=41	=41	=41
0GG	1.D	1d	0G	[0g	2.b
.	.	.	.	.	4cc
.	.	1d	.	.	4dd
.	.	.	.	.	4ee
.	2BB	.	.	.	[2dd
=42	=42	=42	=42	=42	=42
1r	1C	1e	0G	0g]	4dd]
.	.	.	.	.	4cc
.	.	.	.	.	1cc
1GG	1D	1d	.	.	.
.	.	.	.	.	2b
=43	=43	=43	=43	=43	=43
1C	1E	1c	0G	2r	1cc
.	.	.	.	2c	.
2BB	2D	1r	.	2d	1r
[2C	[2E	.	.	2c	.
=44	=44	=44	=44	=44	=44
2C]	2E]	0r	0A	2e	0r
2D	2F	.	.	2d	.
2C	2E	.	.	2e	.
2D	2F	.	.	[2d	.
=45	=45	=45	=45	=45	=45
2BB	2D	0r	[0G	4d]	2r
.	.	.	.	4c	.
2C	2E	.	.	1c	2c
1GG	1D	.	.	.	1d
.	.	.	.	2B	.
=46	=46	=46	=46	=46	=46
0r	0C	1c	0G]	1c	2.e
.	.	.	.	.	4f
.	.	2.c	.	1r	2g
.	.	.	.	.	2e
.	.	4B	.	.	.
=47	=47	=47	=47	=47	=47
0r	0D	2A	1r	0r	1.f
.	.	2G	.	.	.
.	.	1F	1A	.	.
.	.	.	.	.	[2a
=48	=48	=48	=48	=48	=48
0r	0D	1.A	1F	0r	2a]
.	.	.	.	.	2g
.	.	.	1A	.	1f
.	.	2F	.	.	.
=49	=49	=49	=49	=49	=49
0r	2.C	2G	1c	1r	1e
.	.	1A	.	.	.
.	4D	.	.	.	.
.	1E	.	1B	2r	1e
.	.	2G#Xi	.	[2e	.
=50	=50	=50	=50	=50	=50
0r	1AA	1.A	1A	2e]	1c
.	.	.	.	2c	.
.	1r	.	1c	2c	1e
.	.	[2E	.	2e	.
=51	=51	=51	=51	=51	=51
0r	1r	4E]	1G	2e	1g
.	.	4F	.	.	.
.	.	2G	.	2d	.
.	1D	2A	1r	1d	1f
.	.	2B	.	.	.
=52	=52	=52	=52	=52	=52
0r	1C	1c	0r	1A	1e
.	1E	1B	.	1G	1g
=53	=53	=53	=53	=53	=53
0r	1G	0r	0r	1B	2.d
.	.	.	.	.	4e
.	1F	.	.	1d	4f
.	.	.	.	.	4g
.	.	.	.	.	[2a
=54	=54	=54	=54	=54	=54
1AA	1E	2r	0r	1c	4a]
.	.	.	.	.	4b
.	.	1E	.	.	4cc
.	.	.	.	.	4a
1GG	1G	.	.	1B	2b
.	.	[2D	.	.	[2g
=55	=55	=55	=55	=55	=55
1BB-X	1D	2D]	0r	1d	2g]
.	.	1F	.	.	2.d
1D	1r	.	.	2.A	.
.	.	.	.	.	4e
.	.	[2A	.	.	2f
.	.	.	.	4B	.
=56	=56	=56	=56	=56	=56
1C	0r	2A]	0r	2c	2e
.	.	1G	.	4G	2c
.	.	.	.	4A	.
1BB-Xi	.	.	.	4B-Xi	2.d
.	.	.	.	4c	.
.	.	[2F	.	[2d	.
.	.	.	.	.	4e
=57	=57	=57	=57	=57	=57
1D	0r	2F]	0r	2d]	1f
.	.	1A	.	2.A	.
1AA	.	.	.	.	1e
.	.	.	.	4B	.
.	.	2E	.	2c	.
=58	=58	=58	=58	=58	=58
1r	1.A	1F	0c	4A	1r
.	.	.	.	4B	.
.	.	.	.	4c	.
.	.	.	.	4d	.
1AA	.	1E	.	1e	1a
.	2G	.	.	.	.
=59	=59	=59	=59	=59	=59
0D	0F	1D	0d	0f	1.a
.	.	[1d	.	.	.
.	.	.	.	.	[2dd
=60	=60	=60	=60	=60	=60
0GG	0G	1d]	0d	2r	4dd]
.	.	.	.	.	4cc
.	.	.	.	1d	4b
.	.	.	.	.	4a
.	.	[1G	.	.	1b
.	.	.	.	[2g	.
=61	=61	=61	=61	=61	=61
0C	0E	1G]	0G	4g]	1cc
.	.	.	.	4f	.
.	.	.	.	4e	.
.	.	.	.	4d	.
.	.	1c	.	1e	1r
=62	=62	=62	=62	=62	=62
0D	0D	2r	1F	1f	1a
.	.	2.A	.	.	.
.	.	.	1A	1d	1f
.	.	4G	.	.	.
.	.	2F	.	.	.
=63	=63	=63	=63	=63	=63
0AA	1C	1E	1c	0e	1a
.	[1E	2.C	1A	.	1cc
.	.	4D	.	.	.
=64	=64	=64	=64	=64	=64
1AA	2E]	2E	1c	0r	1a
.	4D	2F	.	.	.
.	4C	.	.	.	.
1GG	1D	1G	1B	.	1b
=65	=65	=65	=65	=65	=65
0AA	0C	1.E	0A	[0e	1.cc
.	.	[2e	.	.	4b
.	.	.	.	.	4a
=66	=66	=66	=66	=66	=66
0E	1r	4e]	0G	0e]	1b
.	.	4d	.	.	.
.	.	4c	.	.	.
.	.	4B	.	.	.
.	1C	1c	.	.	[1g
=67	=67	=67	=67	=67	=67
0D	1.F	0d	0A	2r	2g]
.	.	.	.	1A	4f#Xi
.	.	.	.	.	4e
.	.	.	.	.	1f#Xi
.	2D	.	.	2d	.
=68	=68	=68	=68	=68	=68
1GG	2E	0r	0G	2B	0g
.	2D	.	.	1d	.
1r	1E	.	.	.	.
.	.	.	.	2c	.
=69	=69	=69	=69	=69	=69
0r	1.D	0r	0r	2d	0r
.	.	.	.	2.f	.
.	.	.	.	4e	.
.	2C	.	.	[2e	.
=70	=70	=70	=70	=70	=70
0r	2D	1r	0r	4e]	0r
.	.	.	.	4d	.
.	2F	.	.	1d	.
.	1E	[1G	.	.	.
.	.	.	.	2c#Xi	.
=71	=71	=71	=71	=71	=71
1GG	1D	2G]	[0d	1d	0r
.	.	2A	.	.	.
1G	1GG	1B	.	1r	.
=72	=72	=72	=72	=72	=72
2F	1D	1A	0d]	0r	0r
2D	.	.	.	.	.
1G	1r	1B	.	.	.
=73	=73	=73	=73	=73	=73
2F	0r	2c	0f	0r	0r
2D	.	2d	.	.	.
[1F	.	2c	.	.	.
.	.	[2d	.	.	.
=74	=74	=74	=74	=74	=74
2F]	0r	4d]	0d	0r	0r
.	.	4c	.	.	.
2E	.	1c	.	.	.
1D	.	.	.	.	.
.	.	2B	.	.	.
=75	=75	=75	=75	=75	=75
1AA	0r	0c	0e	0r	0r
1C	.	.	.	.	.
=76	=76	=76	=76	=76	=76
0D	0r	1A	0f	0r	0r
.	.	[1d	.	.	.
=77	=77	=77	=77	=77	=77
0E	0r	2d]	0g	0r	0r
.	.	4c	.	.	.
.	.	4B	.	.	.
.	.	2c	.	.	.
.	.	2G	.	.	.
=78	=78	=78	=78	=78	=78
[0D	0r	2A	0f	0r	0r
.	.	2B	.	.	.
.	.	2A	.	.	.
.	.	[2d	.	.	.
=79	=79	=79	=79	=79	=79
0D]	0F	4d]	0f	0r	0r
.	.	4c	.	.	.
.	.	1c	.	.	.
.	.	2B	.	.	.
=80	=80	=80	=80	=80	=80
0C	0G	0c	0e	0r	0r
=81	=81	=81	=81	=81	=81
0r	1.F	0r	0r	1c	[0a
.	.	.	.	1d	.
.	2E	.	.	.	.
=82	=82	=82	=82	=82	=82
0r	2D	0r	0r	1.f	0a]
.	2C	.	.	.	.
.	1D	.	.	.	.
.	.	.	.	4e	.
.	.	.	.	4d	.
=83	=83	=83	=83	=83	=83
0r	2C	0r	0r	2e	0cc
.	1F	.	.	2c	.
.	.	.	.	2f	.
.	2E	.	.	2g	.
=84	=84	=84	=84	=84	=84
0r	2F	0r	0r	2a	0a
.	2G	.	.	1g	.
.	1A	.	.	.	.
.	.	.	.	2f	.
=85	=85	=85	=85	=85	=85
0r	1.G	0r	0r	2e	0b
.	.	.	.	4d	.
.	.	.	.	4c	.
.	.	.	.	1d	.
.	2D	.	.	.	.
=86	=86	=86	=86	=86	=86
0r	2E	0r	0r	1c	0cc
.	1F	.	.	.	.
.	.	.	.	2A	.
.	2E	.	.	2c	.
=87	=87	=87	=87	=87	=87
0r	4D	0r	0r	4B	0dd
.	4C	.	.	4A	.
.	4BB	.	.	1A	.
.	4AA	.	.	.	.
.	1BB	.	.	.	.
.	.	.	.	2G#Xi	.
=88	=88	=88	=88	=88	=88
0r	1AA	0r	0r	2.A	0cc
.	.	.	.	4G	.
.	[1C	.	.	2G	.
.	.	.	.	[2A	.
=89	=89	=89	=89	=89	=89
1r	2C]	0r	0r	2A]	0cc
.	2BB	.	.	1G	.
1C	1AA	.	.	.	.
.	.	.	.	2F#Xi	.
=90	=90	=90	=90	=90	=90
1D	0GG	0r	0r	0G	0b
1E	.	.	.	.	.
=91	=91	=91	=91	=91	=91
1F	0r	1A	1r	0r	0r
1E	.	1G	1c	.	.
=92	=92	=92	=92	=92	=92
1D	0r	1A	1f	0r	0r
2BB-X	.	1B-X	1f	.	.
2C	.	.	.	.	.
=93	=93	=93	=93	=93	=93
1D	0r	2A	1f	0r	0r
.	.	2F	.	.	.
2C	.	2G	1e	.	.
2AA	.	[2A	.	.	.
=94	=94	=94	=94	=94	=94
1BB-Xi	0r	2A]	1d	0r	0r
.	.	2G	.	.	.
2.AA	.	1A	2.c	.	.
4BB-Xi	.	.	4d	.	.
=95	=95	=95	=95	=95	=95
2C	0r	2G	2e	0r	0r
2D	.	2F	2.f	.	.
2BB-X	.	2B-Xi	.	.	.
.	.	.	4e	.	.
2C	.	2A	[2e	.	.
=96	=96	=96	=96	=96	=96
2GG	0r	4G	4e]	1r	0r
.	.	4F	4d	.	.
2BB-Xi	.	4E	1d	.	.
.	.	4D	.	.	.
1AA	.	1E	.	[1A	.
.	.	.	2c#Xi	.	.
=97	=97	=97	=97	=97	=97
1D	1r	1D	0d	1A]	1r
1r	1D	1r	.	1A	1a
=98	=98	=98	=98	=98	=98
0r	2E	0r	0r	2G	1cc
.	1F	.	.	2.A	.
.	.	.	.	.	1cc
.	.	.	.	4B	.
.	4E	.	.	[2c	.
.	4D	.	.	.	.
=99	=99	=99	=99	=99	=99
0r	4C	0r	0r	2c]	1cc
.	4D	.	.	.	.
.	4E	.	.	4B	.
.	4F	.	.	4A	.
.	1G	.	.	4G	1b
.	.	.	.	4A	.
.	.	.	.	4B	.
.	.	.	.	4c	.
=100	=100	=100	=100	=100	=100
0r	1D	0r	0r	1d	1a
.	2.E	.	.	2B	2.g
.	.	.	.	2e	.
.	4F	.	.	.	4a
=101	=101	=101	=101	=101	=101
0r	2G	0r	0r	2d	2b
.	2A	.	.	2c	2.cc
.	2F	.	.	2.d	.
.	.	.	.	.	4b
.	2G	.	.	.	[2b
.	.	.	.	4B	.
=102	=102	=102	=102	=102	=102
0r	2F	0r	0r	2c	4b]
.	.	.	.	.	4a
.	2D	.	.	2d	1a
.	1E	.	.	1B	.
.	.	.	.	.	2g#Xi
=103	=103	=103	=103	=103	=103
0r	0AA	1.E	0r	1A	1a
.	.	.	.	1r	1cc
.	.	2F	.	.	.
=104	=104	=104	=104	=104	=104
0GG	2r	1.G	0d	2.d	2b
.	2D	.	.	.	1dd
.	.	.	.	4c	.
.	[1G	.	.	2B	.
.	.	2A	.	2A	2cc
=105	=105	=105	=105	=105	=105
1GG	2G]	1B	1d	1G	2b
.	2F	.	.	.	2a
1C	2E	[1c	1e	1G	1g
.	2D	.	.	.	.
=106	=106	=106	=106	=106	=106
1AA	1C	2c]	1e	1c	1a
.	.	1A	.	.	.
1BB	1D	.	1d	1r	1r
.	.	2G	.	.	.
=107	=107	=107	=107	=107	=107
1AA	[0E	2A	1c	1e	1a
.	.	1c	.	.	.
[1C	.	.	1r	2c	[1g
.	.	4B	.	2d	.
.	.	4A	.	.	.
=108	=108	=108	=108	=108	=108
2C]	0E]	1G	0c	1.e	1g]
2BB	.	.	.	.	.
[1AA	.	2.c	.	.	[1a
.	.	.	.	2d	.
.	.	4B	.	.	.
=109	=109	=109	=109	=109	=109
1AA]	2.F	1A	1c	1c	1a]
.	4E	.	.	.	.
[1GG	1G	[1D	[1d	2B	2b
.	.	.	.	2G	[2dd
=110	=110	=110	=110	=110	=110
1GG]	1D	1D]	2d]	2g	4dd]
.	.	.	.	.	4cc
.	.	.	2c	2f	4b
.	.	.	.	.	4a
1r	1E	1G	1B	1e	1g
=111	=111	=111	=111	=111	=111
1D	1F	1F	1A	2d	1a
.	.	.	.	2c	.
1GG	1G	1D	1G	1B	1b
=112	=112	=112	=112	=112	=112
1AA	1C	0r	2.c	2A	2e
.	.	.	.	2.c	2a
.	.	.	4d	.	.
1C	1r	.	4e	.	2g
.	.	.	4f	4B	.
.	.	.	[2e	2G	2cc
=113	=113	=113	=113	=113	=113
1D	0r	1F	4e]	2.d	2b
.	.	.	4d	.	.
.	.	.	1d	.	2.a
.	.	.	.	4c	.
1E	.	1G	.	4B	.
.	.	.	.	4A	4g
.	.	.	2c	2G	[2g
=114	=114	=114	=114	=114	=114
0D	1r	0A	[0d	1r	2g]
.	.	.	.	.	4f#Xi
.	.	.	.	.	4e
.	1D	.	.	1A	1f#Xi
=115	=115	=115	=115	=115	=115
0GG	1BB	0G	0d]	2B	1g
.	.	.	.	1d	.
.	1D	.	.	.	1r
.	.	.	.	4c	.
.	.	.	.	4B	.
=116	=116	=116	=116	=116	=116
1r	1F	0A	0r	2A	1r
.	.	.	.	2B	.
1AA	1E	.	.	1c	1a
=117	=117	=117	=117	=117	=117
1D	1D	1.A	0r	0d	1f
1D	1F	.	.	.	1a
.	.	4G	.	.	.
.	.	4F	.	.	.
=118	=118	=118	=118	=118	=118
1C	1G	2E	0r	1e	1cc
.	.	2C	.	.	.
1D	1GG	1G	.	1d	1b
=119	=119	=119	=119	=119	=119
1F	1r	0A	0r	1c	1a
1E	1AA	.	.	1A	1cc
=120	=120	=120	=120	=120	=120
1D	1BB-X	1r	0r	1F	1dd
1F	2AA	1A	.	1A	1r
.	2D	.	.	.	.
=121	=121	=121	=121	=121	=121
1G	2.C	2.E	0r	1c	1r
.	4D	4F	.	.	.
1r	1E	1G	.	1B	1g
=122	=122	=122	=122	=122	=122
0r	1AA	1c	0r	1A	2a
.	.	.	.	.	1cc
.	1r	1A	.	1c	.
.	.	.	.	.	[2a
=123	=123	=123	=123	=123	=123
1D	0r	1F	0r	1d	2a]
.	.	.	.	.	1f
1AA	.	1A	.	1e	.
.	.	.	.	.	[2cc
=124	=124	=124	=124	=124	=124
4AA	0r	1c	0r	1e	4cc]
4BB	.	.	.	.	4b
4C	.	.	.	.	1a
4D	.	.	.	.	.
1E	.	1B	.	2.e	.
.	.	.	.	.	2g#Xi
.	.	.	.	4d	.
=125	=125	=125	=125	=125	=125
1F	1r	1A	1r	2c	0a
.	.	.	.	2A	.
1E	1AA	1c	1A	1e	.
=126	=126	=126	=126	=126	=126
1D	1BB-X	1d	1F	0r	0r
1r	1AA	1c	1A	.	.
=127	=127	=127	=127	=127	=127
0r	4AA	2A	1c	0r	0r
.	4BB	.	.	.	.
.	4C	1A	.	.	.
.	4D	.	.	.	.
.	4E	.	1B	.	.
.	4F	.	.	.	.
.	4G	2G	.	.	.
.	4E	.	.	.	.
=128	=128	=128	=128	=128	=128
0r	1F	2A	1A	1r	0r
.	.	2F	.	.	.
.	1E	1G	1c	1e	.
=129	=129	=129	=129	=129	=129
1F	1D	1A	0d	2f	1a
.	.	.	.	1d	.
1G	1r	1r	.	.	1b
.	.	.	.	[2B	.
=130	=130	=130	=130	=130	=130
1E	0r	0r	0r	2B]	1g
.	.	.	.	1G	.
2C	.	.	.	.	1e
4BB	.	.	.	2A	.
4AA	.	.	.	.	.
=131	=131	=131	=131	=131	=131
1GG	0r	0r	1d	1B	1.g
[1C	.	.	1e	1c	.
.	.	.	.	.	2f
=132	=132	=132	=132	=132	=132
1C]	0r	0r	1c	4c	1e
.	.	.	.	4B	.
.	.	.	.	4A	.
.	.	.	.	4G	.
1D	.	.	1A	1F	1d
=133	=133	=133	=133	=133	=133
2.C	0r	0r	1c	2G	2.e
.	.	.	.	2.g	.
4D	.	.	.	.	4f
2E	.	.	2B	.	2g
.	.	.	.	4f	.
4AA	.	.	2c	4e	[2a
4BB	.	.	.	4d	.
=134	=134	=134	=134	=134	=134
4C	0r	1r	4c	2.c	4a]
4D	.	.	4B	.	4g
2E	.	.	4A	.	1g
.	.	.	4G	4B	.
1D	.	1A	1A	[1d	.
.	.	.	.	.	2f#Xi
=135	=135	=135	=135	=135	=135
1GG	2r	2B	1G	1d]	1g
.	1G	4G	.	.	.
.	.	4A	.	.	.
1r	.	4B	1r	1r	1r
.	.	4c	.	.	.
.	2F	[2d	.	.	.
=136	=136	=136	=136	=136	=136
0r	2E	4d]	0r	0r	0r
.	.	4c	.	.	.
.	2C	1c	.	.	.
.	1D	.	.	.	.
.	.	2B	.	.	.
=137	=137	=137	=137	=137	=137
0r	1.C	1.c	1.e	0r	0r
.	2D	[2B	2d	.	.
=138	=138	=138	=138	=138	=138
0r	2E	4B]	2c	0r	0r
.	.	4A	.	.	.
.	2F	1A	2A	.	.
.	1E	.	1B	.	.
.	.	2G#Xi	.	.	.
=139	=139	=139	=139	=139	=139
0r	1AA	1A	2.A	0r	1.a
.	.	.	4B	.	.
.	1r	2F	4c	.	.
.	.	.	4d	.	.
.	.	2G	[2e	.	2g
=140	=140	=140	=140	=140	=140
0r	0r	2A	4e]	0r	2f
.	.	.	4d	.	.
.	.	2B-Xi	1d	.	2d
.	.	1A	.	.	1e
.	.	.	2c#Xi	.	.
=141	=141	=141	=141	=141	=141
1D	0r	1D	1d	1.d	2.d
.	.	.	.	.	4e
2BB-X	.	1r	1r	.	4f
.	.	.	.	.	4g
2C	.	.	.	2c	[2a
=142	=142	=142	=142	=142	=142
2D	0r	0r	0r	2B	4a]
.	.	.	.	.	4g
2E	.	.	.	2G	1g
1D	.	.	.	1A	.
.	.	.	.	.	2f#Xi
=143	=143	=143	=143	=143	=143
0GG	0r	2r	0r	2.G	0g
.	.	1G	.	.	.
.	.	.	.	4A	.
.	.	.	.	4B	.
.	.	.	.	4c	.
.	.	2F	.	[2d	.
=144	=144	=144	=144	=144	=144
1AA	0r	2E	0r	4d]	0r
.	.	.	.	4c	.
.	.	2C	.	1c	.
1GG	.	1D	.	.	.
.	.	.	.	2B	.
=145	=145	=145	=145	=145	=145
1AA	0E	2C	0r	2c	0r
.	.	2.c	.	2.e	.
1C	.	.	.	.	.
.	.	4B	.	4d	.
.	.	4A	.	4c	.
.	.	4G	.	4B	.
=146	=146	=146	=146	=146	=146
1.D	1.F	2F	0r	2A	0r
.	.	2.B-Xi	.	1d	.
.	.	4A	.	.	.
2C	[2E	[2A	.	2e	.
=147	=147	=147	=147	=147	=147
2BB	2E]	2A]	0r	2d	1r
2GG	1D	1G	.	2B	.
1AA	.	.	.	1c	1a
.	2C	2F#Xi	.	.	.
=148	=148	=148	=148	=148	=148
4GG	2.D	1G	1d	1B	1b
4AA	.	.	.	.	.
4BB	.	.	.	.	.
4C	4E	.	.	.	.
2D	2F	1r	1d	1r	2a
2GG	[2G	.	.	.	[2b
=149	=149	=149	=149	=149	=149
1BB	4G]	1r	1d	0r	2b]
.	4F	.	.	.	.
.	4E	.	.	.	2g
.	4D	.	.	.	.
1AA	2E	1A	1c	.	2a
.	2C	.	.	.	[2cc
=150	=150	=150	=150	=150	=150
0GG	2G	1D	1d	2r	2cc]
.	4F	.	.	2g	4b
.	4E	.	.	.	4a
.	4D	1G	1d	4g	1b
.	4C	.	.	4f	.
.	2D	.	.	4e	.
.	.	.	.	4d	.
=151	=151	=151	=151	=151	=151
1C	1C	1E	1G	1e	1cc
[1D	1F	1D	1F	[1f	2b
.	.	.	.	.	[2a
=152	=152	=152	=152	=152	=152
1D]	1D	1F	1A	1f]	2a]
.	.	.	.	.	4g
.	.	.	.	.	4f
1C	[1E	1G	1c	1r	4e
.	.	.	.	.	4c
.	.	.	.	.	[2cc
=153	=153	=153	=153	=153	=153
1AA	1E]	0A	1c	1e	4cc]
.	.	.	.	.	4b
.	.	.	.	.	4a
.	.	.	.	.	4g
1D	1D	.	1A	1f	4f
.	.	.	.	.	4e
.	.	.	.	.	[2a
=154	=154	=154	=154	=154	=154
1C	1E	1r	1c	1e	4a]
.	.	.	.	.	4g
.	.	.	.	.	1g
1D	1F	1A	1A	1d	.
.	.	.	.	.	2f#Xi
=155	=155	=155	=155	=155	=155
0GG	1D	1B	0G	0d	2.g
.	.	.	.	.	4a
.	1G	1B	.	.	4b
.	.	.	.	.	4cc
.	.	.	.	.	[2dd
=156	=156	=156	=156	=156	=156
1AA	1C	1A	1F	1r	4dd]
.	.	.	.	.	4cc
.	.	.	.	.	1cc
1GG	1D	1d	1G	[1g	.
.	.	.	.	.	2b
=157	=157	=157	=157	=157	=157
1C	1E	1.c	[0Gl	2g]	1cc
.	.	.	.	2f	.
1C	1E	.	.	2e	1g
.	.	2c	.	2c	.
=158	=158	=158	=158	=158	=158
[0GGl	[0Dl	[0Bl	0G_	[0dl	[0g
=159	=159	=159	=159	=159	=159
0GG_	0D_	0B_	0G_	0d_	0g]
=160	=160	=160	=160	=160	=160
0GG]	0D]	0B]	0G]	0d]	0bl
!!LO:LB:i:g=z
=161||	=161||	=161||	=161||	=161||	=161||
*>B	*>B	*>B	*>B	*>B	*>B
*clefF4	*clefF4	*clefGv2	*clefGv2	*clefGv2	*clefG2
*k[]	*k[]	*k[]	*k[]	*k[]	*k[]
*M2/1	*M2/1	*M2/1	*M2/1	*M2/1	*M2/1
*met(C|)	*met(C|)	*met(C|)	*met(C|)	*met(C|)	*met(C|)
!!!OMD: Secunda pars: Descendi in ortum meum
0r	0r	0r	0G	1.d	1dd
.	.	.	.	.	[1dd
.	.	.	.	2c	.
=162	=162	=162	=162	=162	=162
0r	0r	0r	0B	2B	2dd]
.	.	.	.	2A	2cc
.	.	.	.	2G	2b
.	.	.	.	2F	2a
=163	=163	=163	=163	=163	=163
0r	0r	0r	0c	2E	2g
.	.	.	.	2D	2f
.	.	.	.	1C	1e
=164	=164	=164	=164	=164	=164
0r	0r	1d	[0d	0G	2d
.	.	.	.	.	1dd
.	.	[1d	.	.	.
.	.	.	.	.	2cc
=165	=165	=165	=165	=165	=165
0r	1.G	2d]	0d]	0B	2b
.	.	2c	.	.	2a
.	.	2B	.	.	1g
.	2F	2A	.	.	.
=166	=166	=166	=166	=166	=166
0r	2E	2G	0r	0c	[0a
.	2D	2F	.	.	.
.	1C	1E	.	.	.
=167	=167	=167	=167	=167	=167
0GG	1BB	1D	0r	[0d	0a]
.	1r	[1d	.	.	.
=168	=168	=168	=168	=168	=168
0BB	1GG	2d]	0r	0d]	0r
.	.	2c	.	.	.
.	[1G	2B	.	.	.
.	.	2A	.	.	.
=169	=169	=169	=169	=169	=169
[0C	2G]	0G	0r	1.g	0r
.	2F	.	.	.	.
.	2E	.	.	.	.
.	2D	.	.	2f	.
=170	=170	=170	=170	=170	=170
0C]	2C	0A	0e	2e	1r
.	2BB	.	.	2d	.
.	1AA	.	.	1c	1a
=171	=171	=171	=171	=171	=171
0D	0GG	1D	0g	1B	2b
.	.	.	.	.	4g
.	.	.	.	.	4a
.	.	[1G	.	1G	4b
.	.	.	.	.	4cc
.	.	.	.	.	[2dd
=172	=172	=172	=172	=172	=172
0r	0GG	2G]	0d	0g	4dd]
.	.	.	.	.	4cc
.	.	4F	.	.	1cc
.	.	4E	.	.	.
.	.	1D	.	.	.
.	.	.	.	.	2b
=173	=173	=173	=173	=173	=173
0E	0C	1C	0e	0g	0cc
.	.	[1c	.	.	.
=174	=174	=174	=174	=174	=174
0G	0GG	2c]	0d	1r	0r
.	.	4B	.	.	.
.	.	4A	.	.	.
.	.	2.B	.	1G	.
.	.	4c	.	.	.
=175	=175	=175	=175	=175	=175
0D	0r	0d	0r	1A	1r
.	.	.	.	[1d	[1a
=176	=176	=176	=176	=176	=176
0E	0r	0G	0r	2d]	2a]
.	.	.	.	2B	2g
.	.	.	.	1c	[1g
=177	=177	=177	=177	=177	=177
0D	0r	0A	0d	1d	2g]
.	.	.	.	.	4f#Xi
.	.	.	.	.	4e
.	.	.	.	2r	1f#Xi
.	.	.	.	2A	.
=178	=178	=178	=178	=178	=178
0r	0GG	0G	0d	2B	[0g
.	.	.	.	1c	.
.	.	.	.	2B	.
=179	=179	=179	=179	=179	=179
0r	0C	2.E	0e	[0c	0g]
.	.	4F	.	.	.
.	.	1G	.	.	.
=180	=180	=180	=180	=180	=180
0r	1AA	1A	0e	0c]	1r
.	1C	1G	.	.	[1g
=181	=181	=181	=181	=181	=181
0D	0GG	0G	0d	2B	2g]
.	.	.	.	2G	2a
.	.	.	.	2g	2b
.	.	.	.	4f	2cc
.	.	.	.	4e	.
=182	=182	=182	=182	=182	=182
0D	0BB-X	1F	0r	0d	1.dd
.	.	1G	.	.	.
.	.	.	.	.	4cc
.	.	.	.	.	4b
=183	=183	=183	=183	=183	=183
0E	0AA	1A	0r	2.c	1.cc
.	.	.	.	4d	.
.	.	[1c	.	4e	.
.	.	.	.	4c	.
.	.	.	.	[2e	4b
.	.	.	.	.	4a
=184	=184	=184	=184	=184	=184
0E	0C	2c]	0c	4e]	0g
.	.	.	.	4d	.
.	.	4B	.	4c	.
.	.	4A	.	4B	.
.	.	[1G	.	1c	.
=185	=185	=185	=185	=185	=185
0D	0GG	2G]	0B	[0d	0g
.	.	4F	.	.	.
.	.	4E	.	.	.
.	.	2D	.	.	.
.	.	[2d	.	.	.
=186	=186	=186	=186	=186	=186
0r	0D	2d]	0A	0d]	1a
.	.	4c	.	.	.
.	.	4B	.	.	.
.	.	1A	.	.	1f
=187	=187	=187	=187	=187	=187
0C	1E	1.G	0c	0r	1e
.	1C	.	.	.	[1g
.	.	2A	.	.	.
=188	=188	=188	=188	=188	=188
0BB	0D	2B	0G	0r	2g]
.	.	2c	.	.	2a
.	.	1d	.	.	1b
=189	=189	=189	=189	=189	=189
0AA	[0E	[0c	0A	[0e	1cc
.	.	.	.	.	2a
.	.	.	.	.	[2cc
=190	=190	=190	=190	=190	=190
0C	0E]	0c]	0G	1.e]	2cc]
.	.	.	.	.	4b
.	.	.	.	.	4a
.	.	.	.	.	2g
.	.	.	.	2f	[2cc
=191	=191	=191	=191	=191	=191
0GG	0D	1d	0G	1g	2cc]
.	.	.	.	.	4b
.	.	.	.	.	4a
.	.	2D	.	2.g	1b
.	.	[2G	.	.	.
.	.	.	.	4f	.
=192	=192	=192	=192	=192	=192
0AA	0C	2G]	0r	4e	0cc
.	.	.	.	4d	.
.	.	2E	.	1c	.
.	.	1F#Xi	.	.	.
.	.	.	.	4B	.
.	.	.	.	4A	.
=193	=193	=193	=193	=193	=193
0GG	2D	[0G	0r	2B	0r
.	1G	.	.	4G	.
.	.	.	.	4A	.
.	.	.	.	4B	.
.	.	.	.	4c	.
.	4F	.	.	[2d	.
.	4E	.	.	.	.
=194	=194	=194	=194	=194	=194
0GG	4D	0G]	0r	2d]	0g
.	4C	.	.	.	.
.	2E	.	.	1c	.
.	1D	.	.	.	.
.	.	.	.	2B	.
=195	=195	=195	=195	=195	=195
0r	2.C	2r	0r	2c	2.e
.	.	1c	.	1e	.
.	4D	.	.	.	4f
.	2E	.	.	.	2g
.	2F	2A	.	2d	[2a
=196	=196	=196	=196	=196	=196
0r	2E	2B	0r	1e	4a]
.	.	.	.	.	4g
.	2C	2c	.	.	1g
.	1D	1A	.	[1d	.
.	.	.	.	.	2f#Xi
=197	=197	=197	=197	=197	=197
0r	1GG	0G	0r	1d]	1g
.	1r	.	.	1e	1g
=198	=198	=198	=198	=198	=198
0r	0r	1F	0r	1f	1a
.	.	4F	.	1f	1cc
.	.	4G	.	.	.
.	.	4A	.	.	.
.	.	4B	.	.	.
=199	=199	=199	=199	=199	=199
0r	0r	1c	0r	1e	1cc
.	.	4G	.	1d	1b
.	.	4A	.	.	.
.	.	4B	.	.	.
.	.	4c	.	.	.
=200	=200	=200	=200	=200	=200
0r	0r	2d	0r	1f	1a
.	.	4c	.	.	.
.	.	4B	.	.	.
.	.	2A	.	1f	[1cc
.	.	2A	.	.	.
=201	=201	=201	=201	=201	=201
0r	0r	1G	0G	2e	2cc]
.	.	.	.	4d	4b
.	.	.	.	4c	4a
.	.	1r	.	1d	1b
=202	=202	=202	=202	=202	=202
0r	1.F	0r	1A	1c	2cc
.	.	.	.	.	1a
.	.	.	1c	1F	.
.	4E	.	.	.	4g
.	4D	.	.	.	4f
=203	=203	=203	=203	=203	=203
0r	4C	0r	1c	2.G	1e
.	4D	.	.	.	.
.	4E	.	.	.	.
.	4F	.	.	4A	.
.	1G	.	1B	4B	2.d
.	.	.	.	4c	.
.	.	.	.	[2d	.
.	.	.	.	.	4e
=204	=204	=204	=204	=204	=204
0r	1D	0r	1A	4d]	4f
.	.	.	.	4e	4g
.	.	.	.	2f	2a
.	2E	.	[1c	2e	2g
.	2F	.	.	4d	4f
.	.	.	.	4c	4e
=205	=205	=205	=205	=205	=205
0GG	2G	0r	2c]	2.B	2d
.	2E	.	4B	.	1.g
.	.	.	4A	4c	.
.	1D	.	1B	1d	.
=206	=206	=206	=206	=206	=206
1AA	1.C	1r	0c	0r	0e
1C	.	1G	.	.	.
.	2BB	.	.	.	.
=207	=207	=207	=207	=207	=207
1C	1AA	1A	0r	1c	0r
1BB	1GG	1B	.	1d	.
=208	=208	=208	=208	=208	=208
1AA	2r	1.c	0r	2e	0r
.	2.AA	.	.	2.c	.
1C	.	.	.	.	.
.	4BB	.	.	4d	.
.	4C	4B	.	4e	.
.	4D	4A	.	4f	.
=209	=209	=209	=209	=209	=209
0C	2E	2G	0c	4g	0r
.	.	.	.	4f	.
.	1AA	1A	.	4e	.
.	.	.	.	4d	.
.	.	.	.	2.c	.
.	2AA	4G	.	.	.
.	.	4F	.	4B	.
=210	=210	=210	=210	=210	=210
0r	2C	2E	0c	4A	1r
.	.	.	.	4G	.
.	2BB	1D	.	1G	.
.	1AA	.	.	.	1a
.	.	2C	.	2F#Xi	.
=211	=211	=211	=211	=211	=211
0r	0GG	2D	0B	2.G	2.b
.	.	1.G	.	.	.
.	.	.	.	4A	4cc
.	.	.	.	4B	2dd
.	.	.	.	4c	.
.	.	.	.	2d	2b
=212	=212	=212	=212	=212	=212
0C	1AA	2E	0A	1c	2cc
.	.	1A	.	.	2a
.	4AA	.	.	1e	[1cc
.	4BB	.	.	.	.
.	4C	4G	.	.	.
.	4D	4F	.	.	.
=213	=213	=213	=213	=213	=213
0C	2E	0E	0G	0e	2cc]
.	4C	.	.	.	4b
.	4D	.	.	.	4a
.	4E	.	.	.	2g
.	4F	.	.	.	.
.	[2G	.	.	.	4f
.	.	.	.	.	4e
=214	=214	=214	=214	=214	=214
0BB	4G]	1r	0B	0r	1d
.	4F	.	.	.	.
.	1D	.	.	.	.
.	.	1D	.	.	1g
.	[2G	.	.	.	.
=215	=215	=215	=215	=215	=215
0AA	4G]	1E	0c	1e	0a
.	4F	.	.	.	.
.	4E	.	.	.	.
.	4D	.	.	.	.
.	1E	1A	.	1c	.
=216	=216	=216	=216	=216	=216
0BB-X	1D	1F	0d	0B-X	1r
.	1GG	1G	.	.	[1dd
=217	=217	=217	=217	=217	=217
0C	0AA	1E	1c	0A	2dd]
.	.	.	.	.	2a
.	.	1F	1c	.	[1cc
=218	=218	=218	=218	=218	=218
0D	0GG	1G	0r	2.B	2cc]
.	.	.	.	.	4b
.	.	.	.	4c	4a
.	.	[1G	.	2d	1b
.	.	.	.	2B	.
=219	=219	=219	=219	=219	=219
1C	0AA	2G]	0c	1e	0cc
.	.	4F	.	.	.
.	.	4E	.	.	.
1C	.	2F	.	1c	.
.	.	2E	.	.	.
=220	=220	=220	=220	=220	=220
0r	1GG	[0G	0B	0d	0r
.	2r	.	.	.	.
.	[2G	.	.	.	.
=221	=221	=221	=221	=221	=221
0C	4G]	0G]	0c	2.e	0r
.	4F	.	.	.	.
.	4E	.	.	.	.
.	4D	.	.	4f	.
.	1E	.	.	4g	.
.	.	.	.	4a	.
.	.	.	.	[2g	.
=222	=222	=222	=222	=222	=222
0BB-X	1D	1B-X	0d	2g]	1r
.	.	.	.	2f	.
.	1GG	1B-Xi	.	2g	2r
.	.	.	.	2d	[2g
=223	=223	=223	=223	=223	=223
0C	0r	1G	0c	0e	4g]
.	.	.	.	.	4f
.	.	.	.	.	4e
.	.	.	.	.	4d
.	.	1c	.	.	2e
.	.	.	.	.	[2a
=224	=224	=224	=224	=224	=224
0D	0r	0A	0r	0d	4a]
.	.	.	.	.	4g
.	.	.	.	.	4f#Xi
.	.	.	.	.	4e
.	.	.	.	.	1f#Xi
=225	=225	=225	=225	=225	=225
0C	1.G	0r	0c	0e	0g
.	2G	.	.	.	.
=226	=226	=226	=226	=226	=226
0r	4F	0r	0A	1r	1a
.	4E	.	.	.	.
.	4D	.	.	.	.
.	4C	.	.	.	.
.	1D	.	.	1d	1f
=227	=227	=227	=227	=227	=227
0C	0AA	0A	0c	1c	1e
.	.	.	.	[1e	[1a
=228	=228	=228	=228	=228	=228
0AA	2.C	1A	0r	1e]	2a]
.	.	.	.	.	2b
.	4D	.	.	.	.
.	[1E	2A	.	1c	2cc
.	.	4G	.	.	4b
.	.	4F	.	.	4a
=229	=229	=229	=229	=229	=229
0C	1E]	2.E	0G	2.c	1g
.	.	4F	.	4d	.
.	1C	2G	.	1e	1cc
.	.	2G	.	.	.
=230	=230	=230	=230	=230	=230
0r	1D	1D	1F	2d	2b
.	.	.	.	1d	2.a
.	1E	2r	1G	.	.
.	.	.	.	.	4g
.	.	2C	.	2c	[2g
=231	=231	=231	=231	=231	=231
0r	0D	2.F	0A	0d	2g]
.	.	.	.	.	4f#Xi
.	.	4G	.	.	4e
.	.	1A	.	.	1f#Xi
=232	=232	=232	=232	=232	=232
0GG	1D	0B	0G	1d	0g
.	1E	.	.	1G	.
=233	=233	=233	=233	=233	=233
1FF	1F	1A	0r	1A	0r
1GG	2E	[1G	.	1B	.
.	[2D	.	.	.	.
=234	=234	=234	=234	=234	=234
0AA	2D]	2G]	0r	0c	0r
.	4C	4F#Xi	.	.	.
.	4BB	4E	.	.	.
.	1C	1F#Xi	.	.	.
=235	=235	=235	=235	=235	=235
*M3/1	*M3/1	*M3/1	*M3/1	*M3/1	*M3/1
*met(3)	*met(3)	*met(3)	*met(3)	*met(3)	*met(3)
0GG	0D	0G	1.d	0B	1%3r
.	.	.	2e	.	.
1r	1D	1r	1f	1r	.
=236	=236	=236	=236	=236	=236
1%3r	1.E	1.G	1.g	1r	1%3r
.	.	.	.	1r	.
.	2F	2A	2f	.	.
.	1G	1B	1d	1d	.
=237	=237	=237	=237	=237	=237
1%3r	0C	0c	1.c	0e	1%3r
.	.	.	2B	.	.
.	1D	1r	1A	1f	.
=238	=238	=238	=238	=238	=238
1%3r	1.E	1c	1.G	0g	1%3r
.	.	1c	.	.	.
.	2F	.	2A	.	.
.	1G	1B	1B	1g	.
=239	=239	=239	=239	=239	=239
1%3r	1C	0G	0c	0g	1%3r
.	1E	.	.	.	.
.	1D	1A	[1d	1f	.
=240	=240	=240	=240	=240	=240
1%3r	1BB-X	1B-X	1d]	1d	1%3r
.	0C	1A	0c	1.e	.
.	.	2G	.	.	.
.	.	2F	.	2d	.
=241	=241	=241	=241	=241	=241
1%3r	1D	2E	1B	0d	1%3r
.	.	2D	.	.	.
.	0AA	0E	0A	.	.
.	.	.	.	1c#Xi	.
=242	=242	=242	=242	=242	=242
1%3r	0.D	0D	0.F	0d	1%3r
.	.	1A	.	1d	.
=243	=243	=243	=243	=243	=243
1%3r	0GG	1.B	0G	1.d	1r
.	.	.	.	.	1r
.	.	2c	.	2e	.
.	1r	1d	1r	1f	1a
=244	=244	=244	=244	=244	=244
1%3r	1%3r	0G	1.d	0g	0b
.	.	.	2e	.	.
.	.	1A	1f	1r	1cc
=245	=245	=245	=245	=245	=245
1%3r	1%3r	1.B	1g	1g	0dd
.	.	.	2d	1g	.
.	.	2c	2e	.	.
.	.	1d	1f	1f	1dd
=246	=246	=246	=246	=246	=246
1%3r	1%3r	1G	0g	0d	0dd
.	.	1B	.	.	.
.	.	1A	[1a	1e	1cc
=247	=247	=247	=247	=247	=247
1%3r	1%3r	1F	1a]	1f	1a
.	.	1G	1g	1e	1.b
.	.	1A	1f	2d	.
.	.	.	.	2c	2a
=248	=248	=248	=248	=248	=248
1%3r	1%3r	1F	1d	2B	0a
.	.	.	.	2A	.
.	.	0E	0e	0B	.
.	.	.	.	.	1g#Xi
=249	=249	=249	=249	=249	=249
1%3r	0F	1%3r	1r	0A	0a
.	.	.	1r	.	.
.	1F	.	1d	1A	1r
=250	=250	=250	=250	=250	=250
1%3r	1E	1%3r	0e	1.B	1%3r
.	1G	.	.	.	.
.	.	.	.	2c	.
.	1F	.	1f	1d	.
=251	=251	=251	=251	=251	=251
1%3r	1E	1%3r	0g	0G	1%3r
.	1C	.	.	.	.
.	[1E	.	1g	1G	.
=252	=252	=252	=252	=252	=252
1%3r	2E]	1%3r	0g	1.B	1%3r
.	2F	.	.	.	.
.	1G	.	.	.	.
.	.	.	.	2c	.
.	1D	.	1f	1d	.
=253	=253	=253	=253	=253	=253
1%3r	0.G	1%3r	1d	1G	1%3r
.	.	.	1.e	1.B	.
.	.	.	2d	2A	.
=254	=254	=254	=254	=254	=254
1%3r	1F	1%3r	0d	0A	1r
.	0E	.	.	.	1r
.	.	.	1c#Xi	1G	1g
=255	=255	=255	=255	=255	=255
1r	0D	0F	0d	0A	1f
1r	.	.	.	.	1a
1D	1BB-Xi	[1G	1r	1d	1b-Xi
=256	=256	=256	=256	=256	=256
0E	1.C	1G]	1%3r	0.c	0g
.	.	0C	.	.	.
.	2BB	.	.	.	.
1F	1AA	.	.	.	1a
=257	=257	=257	=257	=257	=257
0G	[0.GG	0.D	1%3r	[0.B	1.b
.	.	.	.	.	2cc
1G	.	.	.	.	1dd
=258	=258	=258	=258	=258	=258
0G	0GG]	0d	1%3r	0B]	1g
.	.	.	.	.	1b
1E	1AA	1c	.	1r	1cc
=259	=259	=259	=259	=259	=259
1D	1BB	1B	1%3r	1%3r	1dd
1.E	0C	1.A	.	.	1cc
.	.	.	.	.	1a
2D	.	2G	.	.	.
=260	=260	=260	=260	=260	=260
0D	1BB	0G	1%3r	1%3r	1b
.	0AA	.	.	.	0cc
1C	.	1F#Xi	.	.	.
=261	=261	=261	=261	=261	=261
0.D	0GG	0G	1r	1.d	0b
.	.	.	1r	.	.
.	.	.	.	2e	.
.	1r	1r	1d	1f	1r
=262	=262	=262	=262	=262	=262
1%3r	1.D	1%3r	0d	1.f	1%3r
.	2E	.	.	2g	.
.	1F	.	1c	1a	.
=263	=263	=263	=263	=263	=263
1%3r	0G	1%3r	0B	1.d	0dd
.	.	.	.	2e	.
.	1A	.	1c	1f	1cc
=264	=264	=264	=264	=264	=264
1%3r	1G	1%3r	0d	1g	1b
.	1D	.	.	0f	1.a
.	1F	.	1c	.	.
.	.	.	.	.	2g
=265	=265	=265	=265	=265	=265
1%3r	1G	1%3r	1B	1e	0g
.	0D	.	0A	0d	.
.	.	.	.	.	1f#Xi
=266	=266	=266	=266	=266	=266
1r	0GG	1%3r	0G	1.d	0g
1r	.	.	.	.	.
.	.	.	.	2c	.
1D	1r	.	1r	1A	1r
=267	=267	=267	=267	=267	=267
0D	1GG	1%3r	1%3r	1B	1%3r
.	1BB	.	.	1d	.
1C	1C	.	.	1e	.
=268	=268	=268	=268	=268	=268
0BB	0D	0d	1%3r	2d	1%3r
.	.	.	.	2c	.
.	.	.	.	2B	.
.	.	.	.	2A	.
1C	1E	1c	.	1G	.
=269	=269	=269	=269	=269	=269
0D	0F	1B	1%3r	1F	1%3r
.	.	1.A	.	0A	.
1C	1E	.	.	.	.
.	.	2G	.	.	.
=270	=270	=270	=270	=270	=270
1BB	0D	0G	1%3r	1B	1%3r
0AA	.	.	.	1.c	.
.	1C	1F#Xi	.	.	.
.	.	.	.	2d	.
=271	=271	=271	=271	=271	=271
*M2/1	*M2/1	*M2/1	*M2/1	*M2/1	*M2/1
*met(C|)	*met(C|)	*met(C|)	*met(C|)	*met(C|)	*met(C|)
0GG	0D	[0G	0r	0B	1d
.	.	.	.	.	1d
=272	=272	=272	=272	=272	=272
0r	1C	0G]	0r	1c	0e
.	1E	.	.	2B	.
.	.	.	.	2c	.
=273	=273	=273	=273	=273	=273
0r	1D	0A	0r	2d	0f
.	.	.	.	4c	.
.	.	.	.	4B	.
.	1F	.	.	2A	.
.	.	.	.	[2d	.
=274	=274	=274	=274	=274	=274
1GG	2E	0G	0r	4d]	0g
.	.	.	.	4c	.
.	4D	.	.	4B	.
.	4C	.	.	4A	.
1GG	1D	.	.	1B	.
=275	=275	=275	=275	=275	=275
0AA	0C	1r	0r	1c	0e
.	.	1c	.	1r	.
=276	=276	=276	=276	=276	=276
0BB	0GG	2.B	0r	1d	1d
.	.	4A	.	.	.
.	.	2G	.	1d	1dd
.	.	2F	.	.	.
=277	=277	=277	=277	=277	=277
0C	1G	1E	1G	0e	[0cc
.	1E	1D	1G	.	.
=278	=278	=278	=278	=278	=278
0AA	0C	0c	0A	0f	0cc]
=279	=279	=279	=279	=279	=279
0GG	1r	0d	0B	0g	1.b
.	1D	.	.	.	.
.	.	.	.	.	[2g
=280	=280	=280	=280	=280	=280
0C	1E	0G	0c	0e	2g]
.	.	.	.	.	2.cc
.	1C	.	.	.	.
.	.	.	.	.	4b
.	.	.	.	.	4a
.	.	.	.	.	4g
=281	=281	=281	=281	=281	=281
0D	0F	1r	0A	[0dl	2f
.	.	.	.	.	1g
.	.	1A	.	.	.
.	.	.	.	.	2f#Xi
=282	=282	=282	=282	=282	=282
0GGl	0Dl	0Bl	0Gl	0d]	0gl
==	==	==	==	==	==
*-	*-	*-	*-	*-	*-
!!!RDF**kern: l=long note in original notation
!!!system-decoration: s1,s2,s3,s4,s5,s6
!!!RDF**kern: i = editorial accidental
!!!RDF**kern: V = start of tuplet marker
!!!RDF**kern: Z = end of tuplet marker
!!!ENC: Jesse Rodin 24 Oct 2020
!!!END: 2020/10/24/
!!!EED: Jesse Rodin
!!!EEV: 2021/05/05/
!!attribution-level@Jos: 4a (the rest [double question mark])
!!!ONB: Translated from MusicXML and edited on 2021/05/05/ by Craig Sapp
!!muse2ps: C^@{COA}??\nNJE App. 5; attrib. in Zacconi 1592 (secunda pars) and perhaps Grimm & Wirsung 1520 ("Jod")^i2I150v90,90,90,90,90,150z16c122t200l2700
